packages/icons/raw/imported/SportSoccer.svg

<svg width="32" height="32" viewBox="0 0 32 32" fill="none" xmlns="http://www.w3.org/2000/svg">
<path d="M14.2359 11.7271C14.2359 11.7271 13.232 13.997 13.0791 15.4376C13.0791 15.4376 14.4761 17.3143 15.7637 18.4273L19.6687 17.5761C19.6687 17.5761 20.6289 15.8956 20.7845 13.8319C20.7845 13.8319 19.7567 11.9454 18.1852 10.8542C18.1861 10.8542 16.3531 10.9415 14.2359 11.7271ZM14.2359 11.7271C13.0867 10.556 11.6024 10.0759 11.6024 10.0759M20.7854 13.8319L23.4133 13.1566M23.4133 13.1566C23.4133 13.1566 23.4025 11.0725 22.6713 9.90491C22.6713 9.90491 22.0478 8.91192 19.2556 8.45349M23.4133 13.1566C23.4133 13.1566 24.6123 14.1902 24.9011 16.3032C24.9011 16.3032 24.3626 20.1734 21.0161 20.6676M19.2556 8.45349L18.1861 10.8542M19.2556 8.45349C18.3099 6.88919 16.5201 6.51411 16.5201 6.51411M13.2524 6.90363C13.2524 6.90363 11.9664 8.41706 11.6024 10.0759M11.6024 10.0759C11.6024 10.0759 9.46551 11.2001 8.82529 12.6683C8.82529 12.6683 8.72159 14.2257 9.62368 15.9984L13.0791 15.4359M9.62368 16C9.62368 16 8.64874 17.729 8.92537 19.2858C8.92537 19.2858 9.76905 21.512 11.485 22.3412C11.485 22.3412 13.1146 22.4433 14.8899 21.7738C14.8899 21.7738 15.3991 19.1985 15.7627 18.4267M7.20093 12.412C7.20093 12.412 7.78701 12.3601 8.82167 12.4911M7.08772 19.2966L8.87615 19.1736M11.4859 22.3412C11.4859 22.3412 11.2234 23.1754 11.3924 24.3101M14.8908 21.7738C14.8908 21.7738 16.8985 23.0979 18.0628 23.1849C18.0628 23.1849 20.347 22.1955 21.0161 20.6676M21.0161 20.6676C21.0161 20.6676 20.2742 18.4126 19.6707 17.5758M23.2843 19.5529C23.2843 19.5529 23.7765 20.3861 23.5016 21.8293M18.0628 23.1852C18.0628 23.1852 18.1064 24.6481 17.9535 25.2988M25.5 16C25.5 21.2467 21.2467 25.5 16 25.5C10.7533 25.5 6.5 21.2467 6.5 16C6.5 10.7533 10.7533 6.5 16 6.5C21.2467 6.5 25.5 10.7533 25.5 16Z" stroke="black" stroke-miterlimit="10" stroke-linejoin="round"/>
</svg>

<svg width="32" height="32" fill="none" xmlns="http://www.w3.org/2000/svg"><path d="M14.236 11.727s-1.004 2.27-1.157 3.71c0 0 1.397 1.877 2.685 2.99l3.905-.85s.96-1.681 1.116-3.745c0 0-1.028-1.887-2.6-2.978.001 0-1.832.088-3.95.873Zm0 0c-1.15-1.171-2.634-1.651-2.634-1.651m9.183 3.756 2.628-.675m0 0s-.01-2.085-.742-3.252c0 0-.623-.993-3.415-1.452m4.157 4.704s1.2 1.033 1.488 3.146c0 0-.538 3.87-3.885 4.365m-1.76-12.215-1.07 2.401m1.07-2.4c-.946-1.565-2.736-1.94-2.736-1.94m-3.268.39s-1.286 1.513-1.65 3.172m0 0S9.466 11.2 8.825 12.668c0 0-.103 1.558.799 3.33l3.455-.562M9.624 16s-.975 1.729-.699 3.286c0 0 .844 2.226 2.56 3.055 0 0 1.63.102 3.405-.567 0 0 .51-2.576.873-3.347M7.2 12.412s.586-.052 1.62.08m-1.733 6.805 1.788-.123m2.61 3.167s-.263.834-.094 1.97m3.499-2.537s2.007 1.324 3.172 1.41c0 0 2.284-.989 2.953-2.516m0 0s-.742-2.255-1.345-3.092m3.613 1.977s.492.833.218 2.276m-5.44 1.356s.044 1.463-.109 2.114M25.5 16a9.5 9.5 0 1 1-19 0 9.5 9.5 0 0 1 19 0Z" stroke="#000" stroke-miterlimit="10" stroke-linejoin="round"/></svg>
